dist/svgs/unicons/line/external-link-alt.svg

<svg xmlns="http://www.w3.org/2000/svg" viewBox="0 0 24 24"><path d="M18 10.82a1 1 0 00-1 1V19a1 1 0 01-1 1H5a1 1 0 01-1-1V8a1 1 0 011-1h7.18a1 1 0 000-2H5a3 3 0 00-3 3v11a3 3 0 003 3h11a3 3 0 003-3v-7.18a1 1 0 00-1-1zm3.92-8.2a1 1 0 00-.54-.54A1 1 0 0021 2h-6a1 1 0 000 2h3.59L8.29 14.29a1 1 0 000 1.42 1 1 0 001.42 0L20 5.41V9a1 1 0 002 0V3a1 1 0 00-.08-.38z"/></svg>

<svg xmlns="http://www.w3.org/2000/svg" viewBox="0 0 24 24"><path d="M18,10.82a1,1,0,0,0-1,1V19a1,1,0,0,1-1,1H5a1,1,0,0,1-1-1V8A1,1,0,0,1,5,7h7.18a1,1,0,0,0,0-2H5A3,3,0,0,0,2,8V19a3,3,0,0,0,3,3H16a3,3,0,0,0,3-3V11.82A1,1,0,0,0,18,10.82Zm3.92-8.2a1,1,0,0,0-.54-.54A1,1,0,0,0,21,2H15a1,1,0,0,0,0,2h3.59L8.29,14.29a1,1,0,0,0,0,1.42,1,1,0,0,0,1.42,0L20,5.41V9a1,1,0,0,0,2,0V3A1,1,0,0,0,21.92,2.62Z"/></svg>
